X:1
T:Le tourment (J-79;Jean-Paul Loyer \2511975)
R:jig
D:From recording by J-P Loyer, Ojnab
Z:Translated to abc by Debbie Knight
Z:Chords by Bruce Rosen, after Pete Sutherland
M:6/8
K:G
"G"G2G "D7"AGA |"G"Bdc BAG |"C"E2c cBc | "D"d3 def |
"Em"g2g d2d |"C" ede "G/B"B2B |"Am"cBA "G"BAG |[1 "D"A2F DEF :|[2 "D"DGF "G"G2F |
"C"E3 EFG |"G/B (Bm)"DGF GAB |"Am"d3 dcB |cBA "G/B"BAG |
"C"E3 EFG |"G/B (Bm)"DGF GAB |"C"d2B cBA|[1 "D7"DGF "G"G2F :|[2 "D7"DGF "G"G3 |]

